!!!COM: Franz Schubert
!!!CNT: Deutsch
!!!TXO: Deutsch
!!!OTL: Der Tod und das Ma2dchen
!!!LYR: Matthias Claudius
!!!OPS: Op. 7
!!!ONM: No. 3
!!!ENC: Ben Fuhrman
!!!YOR: Schubert Lieder - Dietrich Fischer-Dieskau, and Elmar Budde, eds.
!!!YOR: New York: C. F. Peters, Vol. 2
!!!ODT: 1817/
!!NB: Only vocal melody encoded.
**kern
*clef G2
*k[b-]
*M2/2
!!created: 08/09/06 10:30
!!proofed and posted: 08/09/06 10:30
!!edit time: 10 minutes
=8
2r
4r
8r
{8a
=9
4b
4a
4r
8.a
16a
=10
4cc
4b
4r
4b
=11
4.cc#
8cc#
4.cc#
8cc#
=12
2.dd
4dd
=13
2.ee-
4a
=14
2b}
4r
8r
{8dd
=15
4dd
4g
4r
4g
=16
4.cc
8cc
4b
4a
=17
2g
4r
4b
=18
4.a
8a
4g
4f
=19
2e}
2r
!! rest to measure 22
=22
{2d
4d
4d
=23
2d
4r
4d
=24
4.d
8d
4d
4d
=25
2d
4r
4d
=26
2.d
4d
=27
4.d
8d
4d
8e
8f
=28
1c
=29
2A}
2r
=30
{2f
4f
4f
=31
2.f
4f
=32
2.f
4f
=33
2.d
4d
=35
4.d
8d
4d
4d
=36
1A
=37
2AA}
2r
==
*-
